local/share/icons/dracula-icons-main/scalable/apps/klavaro.svg

<?xml version="1.0" encoding="UTF-8"?>
<svg xmlns="http://www.w3.org/2000/svg" xmlns:xlink="http://www.w3.org/1999/xlink" width="64" height="64" viewBox="0 0 64 64">
<defs>
<filter id="filter-remove-color" x="0%" y="0%" width="100%" height="100%">
<feColorMatrix color-interpolation-filters="sRGB" values="0 0 0 0 1 0 0 0 0 1 0 0 0 0 1 0 0 0 1 0" />
</filter>
<mask id="mask-0">
<g filter="url(#filter-remove-color)">
<rect x="-6.4" y="-6.4" width="76.8" height="76.8" fill="rgb(0%, 0%, 0%)" fill-opacity="0.15"/>
</g>
</mask>
<clipPath id="clip-0">
<rect x="0" y="0" width="17" height="17"/>
</clipPath>
<g id="source-10952" clip-path="url(#clip-0)">
<path fill-rule="nonzero" fill="rgb(0%, 0%, 0%)" fill-opacity="1" d="M 4.539062 12.394531 L 3.792969 13.140625 C 5.03125 14.382812 6.710938 15.078125 8.464844 15.082031 C 10.21875 15.078125 11.902344 14.382812 13.140625 13.140625 L 12.394531 12.394531 C 11.351562 13.433594 9.941406 14.023438 8.464844 14.023438 C 6.992188 14.023438 5.582031 13.433594 4.539062 12.394531 Z M 4.539062 12.394531 "/>
</g>
</defs>
<path fill-rule="nonzero" fill="rgb(14.117647%, 68.627451%, 42.745098%)" fill-opacity="1" d="M 15.609375 8.464844 C 15.609375 12.410156 12.410156 15.609375 8.464844 15.609375 C 4.519531 15.609375 1.324219 12.410156 1.324219 8.464844 C 1.324219 4.519531 4.519531 1.324219 8.464844 1.324219 C 12.410156 1.324219 15.609375 4.519531 15.609375 8.464844 Z M 15.609375 8.464844 "/>
<g mask="url(#mask-0)">
<use xlink:href="#source-10952"/>
</g>
<path fill-rule="nonzero" fill="rgb(100%, 100%, 100%)" fill-opacity="1" d="M 9.621094 11.378906 L 7.972656 8.535156 L 7.324219 9.261719 L 7.324219 11.378906 L 5.820312 11.378906 L 5.820312 4.496094 L 7.324219 4.496094 L 7.324219 7.550781 L 9.546875 4.496094 L 11.296875 4.496094 L 8.953125 7.449219 L 11.394531 11.378906 Z M 9.621094 11.378906 "/>
</svg>

<svg width="64" height="64" version="1.1" viewBox="0 0 16.933 16.933" xmlns="http://www.w3.org/2000/svg">
 <circle cx="8.4665" cy="8.4665" r="7.1436" fill="#24af6d" style="paint-order:stroke fill markers"/>
 <path d="m4.5402 12.393-0.74776 0.74776a6.6145 6.6145 0 0 0 4.6741 1.9404 6.6145 6.6145 0 0 0 4.6741-1.9404l-0.74776-0.74776a5.5562 5.5562 0 0 1-3.9264 1.6299 5.5562 5.5562 0 0 1-3.9264-1.6299z" opacity=".15" stroke-width=".92592" style="paint-order:stroke fill markers"/>
 <path d="m9.6201 11.377-1.6471-2.8404-0.64762 0.72411v2.1163h-1.5047v-6.879h1.5043v3.0545l2.2233-3.0545h1.7491l-2.3452 2.9523 2.4421 3.9268h-1.7746z" fill="#ffffff" stroke-width=".83548"/>
</svg>
